packages/icons/svg/Fill/facebook.svg

<svg fill="none" height="24" viewBox="0 0 24 24" width="24" xmlns="http://www.w3.org/2000/svg"><path clip-rule="evenodd" d="m17 3.5c0-.276-.225-.5-.5-.5h-2.5c-2.762 0-5 2.015-5 4.5v2.7h-2.5c-.276 0-.5.224-.5.5v2.6c0 .276.224.5.5.5h2.5v6.7c0 .276.224.5.5.5h3c.275 0 .5-.224.5-.5v-6.7h2.619c.225 0 .422-.15.483-.366l.721-2.6c.089-.318-.151-.634-.481-.634h-3.342v-2.7c0-.497.447-.9 1-.9h2.5c.275 0 .5-.224.5-.5z" fill="#6b7280" fill-rule="evenodd"/></svg>

<svg width="24" height="24" viewBox="0 0 24 24" fill="none" xmlns="http://www.w3.org/2000/svg">
<g id="Icon/Fill/facebook">
<path id="Mask" fill-rule="evenodd" clip-rule="evenodd" d="M17 3.5C17 3.224 16.775 3 16.5 3H14C11.238 3 9 5.015 9 7.5V10.2H6.5C6.224 10.2 6 10.424 6 10.7V13.3C6 13.576 6.224 13.8 6.5 13.8H9V20.5C9 20.776 9.224 21 9.5 21H12.5C12.775 21 13 20.776 13 20.5V13.8H15.619C15.844 13.8 16.041 13.65 16.102 13.434L16.823 10.834C16.912 10.516 16.672 10.2 16.342 10.2H13V7.5C13 7.003 13.447 6.6 14 6.6H16.5C16.775 6.6 17 6.376 17 6.1V3.5Z" fill="#000000"/>
</g>
</svg>
